X: 17
T:Hellstedts Gamla Brudmarsch
M:2/4
L:1/16
C:Trad. Swedish
S:Vsen
K:G
D2|:G2G2 B2B2|d2d2 g2g2|dedc B3c|d2d2 A3A|d2f2 e3d|e2f2 d3e|1d^cde d4-|d
